X:1
T:Strop the Razor -- Jig
R:jig
B:Ryan's Mammoth Collection
N: 89 464
Z: Contributed by Ray Davies,  ray:davies99.freeserve.co.uk
M:6/8
L:1/8
K:G
vDGG BGG | AFD FDC | DGG BGG | Add cAG |
 DGG BGG | AFD DFD | FED FGA | cAd cAG :|
|:DGG G2A | DFF F2A | DGG GAB | ded cAG |
  DGG G2A | DFF F2d | cAG FGA | cAd cAG :|
